X:1
T:Said the Blackbird to the Crow
M:4/4
L:1/4
K:C
 E F G G| A A G2| c d e d| c B c2| E F G G| A G G2| A/2G/2 A B c| c B c2|\


